X:221
T:Tant con je vivrai
C:Adam de la Halle
R:Rondeau
O:XIIIe
M:6/8
L:1/8
Q:1/4=70
K:F 
%%continueall 1
%%maxshrink 0.6
V:1
%%MIDI program 73
ab2 a (3g/2f/2e/2f | ga2 g (3f/2e/2d/2c | d2-dz2z | e3 gf/2e/2g | 
a2-az2z | a3 (3g/2f/2e/2f2 | g2-gz2z | g3 f/2e/2d/2c/2d/2e/2 | 
f2-fz2z | ab2 a (3g/2f/2e/2f | ga2 g (3f/2e/2d/2c | d2-dz2z | 
ab2 a (3g/2f/2e/2f | ga2 g (3f/2e/2d/2c | d2-dz2z | ab2 a (3g/2f/2e/2f | 
ga2 g (3f/2e/2d/2c | d2-dz2z | e3 gf/2e/2g | a2-az2z | 
a3 (3g/2f/2e/2f2 | g2-gz2z | g3 f/2e/2d/2c/2d/2e/2 | f3 |]
V:2
%%MIDI program 110
ef2 edc | d3 de2 | g2-gz2z | a3 gf/2e/2d | 
e2-ez2z | e3 dc2 | d2-dz2z | d3 c=B2 | 
c2-cz2z | ef2 edc | d3 de2 | g2-gz2z | 
ef2 edc | d3 de2 | g2-gz2z | ef2 edc | 
d3 de2 | g2-gz2z | a3 gf/2e/2d | e2-ez2z | 
e3 dc2 | d2-dz2z | d3 c=B2 | c3 |]
V:3
%%MIDI program 9
A3 A3 | G3 GA2 | G2-Gz2z | A3 c3 | 
A2-Az2z | A6 | G2-Gz2z | G6 | 
F2-Fz2z | A3 A3 | G3 GA2 | G2-Gz2z | 
A3 A3 | G3 GA2 | G2-Gz2z | A3 A3 | 
G3 GA2 | G2-Gz2z | A3 c3 | A2-Az2z | 
A6 | G2-Gz2z | G6 | F3 |]




%%header "$P0	 $IR 	$P1"
%%footer $D - Éditions Galouvielle - 2009 - À usage librement privé dans le cadre familial

